src/apps/scalable/kate.svg

<?xml version="1.0" encoding="UTF-8" standalone="no"?>
<svg
   width="64"
   height="64"
   viewBox="0 0 64 64"
   version="1.1"
   id="svg283"
   sodipodi:docname="kate.svg"
   inkscape:version="1.2.2 (b0a8486541, 2022-12-01)"
   xmlns:inkscape="http://www.inkscape.org/namespaces/inkscape"
   xmlns:sodipodi="http://sodipodi.sourceforge.net/DTD/sodipodi-0.dtd"
   xmlns="http://www.w3.org/2000/svg"
   xmlns:svg="http://www.w3.org/2000/svg">
  <sodipodi:namedview
     id="namedview285"
     pagecolor="#ffffff"
     bordercolor="#999999"
     borderopacity="1"
     inkscape:showpageshadow="0"
     inkscape:pageopacity="0"
     inkscape:pagecheckerboard="0"
     inkscape:deskcolor="#d1d1d1"
     showgrid="false"
     inkscape:zoom="6.328125"
     inkscape:cx="20.701235"
     inkscape:cy="35.002469"
     inkscape:window-width="1920"
     inkscape:window-height="989"
     inkscape:window-x="0"
     inkscape:window-y="0"
     inkscape:window-maximized="1"
     inkscape:current-layer="svg283" />
  <defs
     id="defs256">
    <linearGradient
       id="linear0"
       gradientUnits="userSpaceOnUse"
       x1="16"
       y1="27"
       x2="16"
       y2="31"
       gradientTransform="scale(2)">
      <stop
         offset="0"
         style="stop-color:rgb(0%,0%,0%);stop-opacity:0.4;"
         id="stop241" />
      <stop
         offset="1"
         style="stop-color:rgb(0%,0%,0%);stop-opacity:0;"
         id="stop243" />
    </linearGradient>
    <linearGradient
       id="linear1"
       gradientUnits="userSpaceOnUse"
       x1="16"
       y1="25"
       x2="16"
       y2="29"
       gradientTransform="scale(2)">
      <stop
         offset="0"
         style="stop-color:rgb(0%,0%,0%);stop-opacity:0.4;"
         id="stop246" />
      <stop
         offset="1"
         style="stop-color:rgb(0%,0%,0%);stop-opacity:0;"
         id="stop248" />
    </linearGradient>
    <linearGradient
       id="linear2"
       gradientUnits="userSpaceOnUse"
       x1="13.4504"
       y1="103.5381"
       x2="20.6399"
       y2="96.348"
       gradientTransform="matrix(6.8158,0,0,-6.8158,-84.1754,710.1866)">
      <stop
         offset="0"
         style="stop-color:rgb(46.666667%,83.529412%,94.117647%);stop-opacity:1;"
         id="stop251" />
      <stop
         offset="1"
         style="stop-color:rgb(27.058824%,69.803922%,82.352941%);stop-opacity:1;"
         id="stop253" />
    </linearGradient>
  </defs>
  <g
     id="surface1"
     transform="matrix(0.875,0,0,0.875,4.0000009,4)">
    <path
       style="fill:#974711;fill-opacity:1;fill-rule:nonzero;stroke:none"
       d="M 9.960938,14 H 54.039062 C 55.144531,14.023438 56.023438,14.9375 56,16.039062 V 61.960938 C 56.023438,63.0625 55.144531,63.976562 54.039062,64 H 9.960938 C 8.855469,63.976562 7.976562,63.0625 8,61.960938 V 16.039062 C 7.976562,14.9375 8.855469,14.023438 9.960938,14 Z m 0,0"
       id="path258" />
    <path
       style="fill:url(#linear0);fill-rule:nonzero;stroke:none"
       d="m 8,54 h 48 v 8 H 8 Z m 0,0"
       id="path260" />
    <path
       style="fill:#ffffff;fill-opacity:1;fill-rule:nonzero;stroke:none"
       d="M 9.960938,10 H 54.039062 C 55.144531,10.023438 56.023438,10.9375 56,12.039062 V 57.960938 C 56.023438,59.0625 55.144531,59.976562 54.039062,60 H 9.960938 C 8.855469,59.976562 7.976562,59.0625 8,57.960938 V 12.039062 C 7.976562,10.9375 8.855469,10.023438 9.960938,10 Z m 0,0"
       id="path262" />
    <path
       style="fill:url(#linear1);fill-rule:nonzero;stroke:none"
       d="m 8,50 h 48 v 8 H 8 Z m 0,0"
       id="path264" />
    <path
       style="fill:url(#linear2);fill-rule:nonzero;stroke:none"
       d="M 9.953125,4 H 54.039062 C 55.144531,4.023438 56.023438,4.9375 56,6.039062 V 51.960938 C 56.023438,53.0625 55.144531,53.976562 54.039062,54 H 9.960938 C 8.855469,53.976562 7.976562,53.0625 8,51.960938 V 6.035156 C 7.976562,4.933594 8.851562,4.023438 9.953125,4 Z m 0,0"
       id="path266" />
    <path
       style="fill:#006e8f;fill-opacity:1;fill-rule:nonzero;stroke:none"
       d="m 17,20 h 30 c 0.550781,0 1,0.449219 1,1 v 2 c 0,0.550781 -0.449219,1 -1,1 H 17 c -0.550781,0 -1,-0.449219 -1,-1 v -2 c 0,-0.550781 0.449219,-1 1,-1 z m 0,0"
       id="path268" />
    <path
       style="fill:#006e8f;fill-opacity:1;fill-rule:nonzero;stroke:none"
       d="m 17,30 h 30 c 0.550781,0 1,0.449219 1,1 v 2 c 0,0.550781 -0.449219,1 -1,1 H 17 c -0.550781,0 -1,-0.449219 -1,-1 v -2 c 0,-0.550781 0.449219,-1 1,-1 z m 0,0"
       id="path270" />
    <path
       style="fill:#006e8f;fill-opacity:1;fill-rule:nonzero;stroke:none"
       d="m 17,40 h 30 c 0.550781,0 1,0.449219 1,1 v 2 c 0,0.550781 -0.449219,1 -1,1 H 17 c -0.550781,0 -1,-0.449219 -1,-1 v -2 c 0,-0.550781 0.449219,-1 1,-1 z m 0,0"
       id="path272" />
    <path
       style="fill:#006e8f;fill-opacity:1;fill-rule:nonzero;stroke:none"
       d="m 17,0 c 1.65625,0 3,1.34375 3,3 v 4 c 0,1.65625 -1.34375,3 -3,3 -1.65625,0 -3,-1.34375 -3,-3 V 3 c 0,-1.65625 1.34375,-3 3,-3 z m 0,0"
       id="path274" />
    <path
       style="fill:#006e8f;fill-opacity:1;fill-rule:nonzero;stroke:none"
       d="m 27,0 c 1.65625,0 3,1.34375 3,3 v 4 c 0,1.65625 -1.34375,3 -3,3 -1.65625,0 -3,-1.34375 -3,-3 V 3 c 0,-1.65625 1.34375,-3 3,-3 z m 0,0"
       id="path276" />
    <path
       style="fill:#006e8f;fill-opacity:1;fill-rule:nonzero;stroke:none"
       d="m 37,0 c 1.65625,0 3,1.34375 3,3 v 4 c 0,1.65625 -1.34375,3 -3,3 -1.65625,0 -3,-1.34375 -3,-3 V 3 c 0,-1.65625 1.34375,-3 3,-3 z m 0,0"
       id="path278" />
    <path
       style="fill:#006e8f;fill-opacity:1;fill-rule:nonzero;stroke:none"
       d="m 47,0 c 1.65625,0 3,1.34375 3,3 v 4 c 0,1.65625 -1.34375,3 -3,3 -1.65625,0 -3,-1.34375 -3,-3 V 3 c 0,-1.65625 1.34375,-3 3,-3 z m 0,0"
       id="path280" />
  </g>
</svg>

<?xml version="1.0" encoding="UTF-8"?>
<svg xmlns="http://www.w3.org/2000/svg" xmlns:xlink="http://www.w3.org/1999/xlink" width="64" height="64" viewBox="0 0 64 64" version="1.1">
<defs>
<linearGradient id="linear0" gradientUnits="userSpaceOnUse" x1="16" y1="27" x2="16" y2="31" gradientTransform="matrix(2,0,0,2,0,0)">
<stop offset="0" style="stop-color:rgb(0%,0%,0%);stop-opacity:0.4;"/>
<stop offset="1" style="stop-color:rgb(0%,0%,0%);stop-opacity:0;"/>
</linearGradient>
<linearGradient id="linear1" gradientUnits="userSpaceOnUse" x1="16" y1="25" x2="16" y2="29" gradientTransform="matrix(2,0,0,2,0,0)">
<stop offset="0" style="stop-color:rgb(0%,0%,0%);stop-opacity:0.4;"/>
<stop offset="1" style="stop-color:rgb(0%,0%,0%);stop-opacity:0;"/>
</linearGradient>
<linearGradient id="linear2" gradientUnits="userSpaceOnUse" x1="13.4504" y1="103.5381" x2="20.6399" y2="96.348" gradientTransform="matrix(6.8158,0,0,-6.8158,-84.1754,710.1866)">
<stop offset="0" style="stop-color:rgb(46.666667%,83.529412%,94.117647%);stop-opacity:1;"/>
<stop offset="1" style="stop-color:rgb(27.058824%,69.803922%,82.352941%);stop-opacity:1;"/>
</linearGradient>
</defs>
<g id="surface1">
<path style=" stroke:none;fill-rule:nonzero;fill:rgb(59.215686%,28.627451%,7.843137%);fill-opacity:1;" d="M 9.960938 14 L 54.039062 14 C 55.144531 14.023438 56.023438 14.9375 56 16.039062 L 56 61.960938 C 56.023438 63.0625 55.144531 63.976562 54.039062 64 L 9.960938 64 C 8.855469 63.976562 7.976562 63.0625 8 61.960938 L 8 16.039062 C 7.976562 14.9375 8.855469 14.023438 9.960938 14 Z M 9.960938 14 "/>
<path style=" stroke:none;fill-rule:nonzero;fill:url(#linear0);" d="M 8 54 L 56 54 L 56 62 L 8 62 Z M 8 54 "/>
<path style=" stroke:none;fill-rule:nonzero;fill:rgb(100%,100%,100%);fill-opacity:1;" d="M 9.960938 10 L 54.039062 10 C 55.144531 10.023438 56.023438 10.9375 56 12.039062 L 56 57.960938 C 56.023438 59.0625 55.144531 59.976562 54.039062 60 L 9.960938 60 C 8.855469 59.976562 7.976562 59.0625 8 57.960938 L 8 12.039062 C 7.976562 10.9375 8.855469 10.023438 9.960938 10 Z M 9.960938 10 "/>
<path style=" stroke:none;fill-rule:nonzero;fill:url(#linear1);" d="M 8 50 L 56 50 L 56 58 L 8 58 Z M 8 50 "/>
<path style=" stroke:none;fill-rule:nonzero;fill:url(#linear2);" d="M 9.953125 4 L 54.039062 4 C 55.144531 4.023438 56.023438 4.9375 56 6.039062 L 56 51.960938 C 56.023438 53.0625 55.144531 53.976562 54.039062 54 L 9.960938 54 C 8.855469 53.976562 7.976562 53.0625 8 51.960938 L 8 6.035156 C 7.976562 4.933594 8.851562 4.023438 9.953125 4 Z M 9.953125 4 "/>
<path style=" stroke:none;fill-rule:nonzero;fill:rgb(0%,43.137255%,56.862745%);fill-opacity:1;" d="M 17 20 L 47 20 C 47.550781 20 48 20.449219 48 21 L 48 23 C 48 23.550781 47.550781 24 47 24 L 17 24 C 16.449219 24 16 23.550781 16 23 L 16 21 C 16 20.449219 16.449219 20 17 20 Z M 17 20 "/>
<path style=" stroke:none;fill-rule:nonzero;fill:rgb(0%,43.137255%,56.862745%);fill-opacity:1;" d="M 17 30 L 47 30 C 47.550781 30 48 30.449219 48 31 L 48 33 C 48 33.550781 47.550781 34 47 34 L 17 34 C 16.449219 34 16 33.550781 16 33 L 16 31 C 16 30.449219 16.449219 30 17 30 Z M 17 30 "/>
<path style=" stroke:none;fill-rule:nonzero;fill:rgb(0%,43.137255%,56.862745%);fill-opacity:1;" d="M 17 40 L 47 40 C 47.550781 40 48 40.449219 48 41 L 48 43 C 48 43.550781 47.550781 44 47 44 L 17 44 C 16.449219 44 16 43.550781 16 43 L 16 41 C 16 40.449219 16.449219 40 17 40 Z M 17 40 "/>
<path style=" stroke:none;fill-rule:nonzero;fill:rgb(0%,43.137255%,56.862745%);fill-opacity:1;" d="M 17 0 C 18.65625 0 20 1.34375 20 3 L 20 7 C 20 8.65625 18.65625 10 17 10 C 15.34375 10 14 8.65625 14 7 L 14 3 C 14 1.34375 15.34375 0 17 0 Z M 17 0 "/>
<path style=" stroke:none;fill-rule:nonzero;fill:rgb(0%,43.137255%,56.862745%);fill-opacity:1;" d="M 27 0 C 28.65625 0 30 1.34375 30 3 L 30 7 C 30 8.65625 28.65625 10 27 10 C 25.34375 10 24 8.65625 24 7 L 24 3 C 24 1.34375 25.34375 0 27 0 Z M 27 0 "/>
<path style=" stroke:none;fill-rule:nonzero;fill:rgb(0%,43.137255%,56.862745%);fill-opacity:1;" d="M 37 0 C 38.65625 0 40 1.34375 40 3 L 40 7 C 40 8.65625 38.65625 10 37 10 C 35.34375 10 34 8.65625 34 7 L 34 3 C 34 1.34375 35.34375 0 37 0 Z M 37 0 "/>
<path style=" stroke:none;fill-rule:nonzero;fill:rgb(0%,43.137255%,56.862745%);fill-opacity:1;" d="M 47 0 C 48.65625 0 50 1.34375 50 3 L 50 7 C 50 8.65625 48.65625 10 47 10 C 45.34375 10 44 8.65625 44 7 L 44 3 C 44 1.34375 45.34375 0 47 0 Z M 47 0 "/>
</g>
</svg>
